X:1
T:Title
%%score { 1 | ( 2 3 ) }
L:1/8
Q:1/4=100
M:4/4
K:A
V:1 treble nm="Grand Piano"
V:2 bass 
V:3 bass 
V:1
 [CE]2 [CE]2 [CE]2 [CE][CE] | [CEA]6 [A,EA]2 | B2 B2 B2 B2 | c4 A2 A2 | [Fd]2 d2 c2 [Ec]2 | %5
w: G.~F.~Root * * * *|||||
 B2 AB c2 A2 | [Fd]2 d2 c2 [Ec]2 | B2 AB [Ec]2 E2 | F2 [EA]2 [Ed]2 [Ec]2 | [DB]4 [CA]2 z2 |] %10
w: |||||
V:2
 [A,,A,]2 [A,,A,]2 [A,,A,]2 [A,,A,][A,,A,] | A,,6 C,2 | [E,G,E]2 [E,G,E]2 [E,G,E]2 [E,G,E]2 | %3
 [A,E]4 [A,C]2 [A,C]2 | [D,A,]2 [F,A,F]2 [A,E]2 [A,,A,]2 | [E,G,E]2 [E,F,E][E,G,E] [A,E]2 [A,C]2 | %6
 [D,A,]2 [F,A,F]2 [A,E]2 [A,,A,]2 | [E,G,E]2 [E,E]-[E,G,E] [A,,A,]2 [C,A,]2 | %8
 [D,A,D]2 [C,A,]2 [B,,G,]2 [A,,A,]2 | [E,G,]4 [A,,A,]2 z2 |] %10
V:3
 x8 | x8 | x8 | x8 | x8 | x8 | x8 | z2 .F,2 z4 | x8 | x8 |] %10

